X: 36320
T: Seamus Shannon's
R: jig
M: 6/8
K: Dmajor
DFA dcA|AGE AGE|DFA dcA|AGE =C3|
A,DD EFG|AdB =c3|dfd AFF|GEC D2A:|
|:DFA fed|dcA AGE|AGE DdA|=c3 GE=C|
A,DD EFG|AdB =c3|dfd AFF|GEC D3:|

